X: 9639
T: Dawns Y Pistyll
R: waltz
M: 3/4
K: Dmajor
|:d2|"D" A2 ABAG|"Bm" F2 A2 D2|"G" G2 GAGF|"A" E4 d2|
"D" A2 ABAG|"Bm" F2 A2 D2|"A" G2 F2 E2|"D" D4:|
D2|"D" F2 FEFG|"A" A4 AG|"Bm" F2 FEFG|"A" A4 A2|
"D" d2 dcde|"A" c2 B2 A2|"D" d2 df "A" eg|"D" f4 e2|
"Bm" d2 dcBd|"A" c2 B2 A2|"E" d2 F2 ^G2|"A" A4 d2|
"D" A2 ABAG|"Bm" F2 A2 D2|"A" G2 F2 E2|"D" D4||

